X:31
T:Epping Forest
M:6/8
L:1/8
K:F
D3 | "Bb" d2 d "F"c>B"(D)"A | "Gm" B>AG "D" ^F2 "(Am)"e | "Dm" f>ed "C" c2 "(Gm)"B | "F"A3-A2 "Dm" d |
"Dm" f>ed "Am" c2 "(D)" A | "Gm" B>AG "D" ^F2 "(Am)"D | "C" E>=FG "D" G2 ^F | [1 "Gm" G3-G3 :| [2 "G" G3-G2 ||
|: B/c/ | "Bb" d3 "F" c3 | "Gm" B3 - B2 d/e/ | "Dm" f3 "A" e3 | "Dm" d3 - d2 :|
V:1
|: d | "Bb" d>ed "F" c>B"D"A | "Gm" B>AG "D" ^F2 D | "C" E>=FG "D" G2 ^F | "Gm" G3-HG3 :|
%
